X: 25887
T: Matt Peoples'
R: reel
M: 4/4
K: Dmajor
|:FABc d2BA|d2BA FE ~E2|FABc d2BA|f2fe dBB2:|
|:ad ~d2 adbd|ad ~d2 fe ~e2|ad ~d2 bdad|egfe dB ~B2|
ad ~d2 adbd|ad ~d2 fe~ e2|fgaf gbaf|egfe dBBA||

